X: 38774
T: Stubborn Mule, The
R: reel
M: 4/4
K: Aminor
A,3 A,|A, B,CD|ECCB, CDEG|GAAG AGEC|D (3EEE EDCB,|
A,3 A,|A, B,CD|ECCB, CDEG|GAAG AGEC|1 .5E 1.5E 1.5E 1.5D 1.5C 1.5B,|
A,3 A,|A, B,CD|ECCB, CDEG|GAAG AGEC|D (3EEE EDCB,|
A,3 A,|A, B,CD|ECCB, CDEG|GAAG AGAB|cGEc BAG2||
A3G ABcd|eccB cdeg|gaag fedc|d (3eee edcB|
A3G ABcd|eccB cdeg|(3fff ff fedc|de (3eee e dcB|
A3G ABcd|eccB cdeg|gaag fedc|d (3eee edcB|
A3G ABcd|eccB cdAG|F2FE FEDF|ECCC DB,B,B,:|

